icons/Sandstorm--1504936.svg

<svg enable-background="new 0 0 16 16" viewBox="0 0 16 16" xmlns="http://www.w3.org/2000/svg"><path d="m5.5 14c-.276 0-.5-.224-.5-.5s.224-.5.5-.5.5-.225.5-.5-.224-.5-.5-.5h-5c-.276 0-.5-.224-.5-.5s.224-.5.5-.5h5c.827 0 1.5.673 1.5 1.5s-.673 1.5-1.5 1.5z"/><path d="m6.5 6h-6c-.276 0-.5-.224-.5-.5s.224-.5.5-.5h6c.276 0 .5-.224.5-.5s-.224-.5-.5-.5-.5-.224-.5-.5.224-.5.5-.5c.827 0 1.5.673 1.5 1.5s-.673 1.5-1.5 1.5z"/><path d="m10.5 9h-10c-.276 0-.5-.224-.5-.5s.224-.5.5-.5h10c.827 0 1.5-.673 1.5-1.5s-.673-1.5-1.5-1.5c-.276 0-.5-.224-.5-.5s.224-.5.5-.5c1.379 0 2.5 1.122 2.5 2.5s-1.121 2.5-2.5 2.5z"/><path d="m9.5 15c-.827 0-1.5-.673-1.5-1.5s.673-1.5 1.5-1.5 1.5.673 1.5 1.5-.673 1.5-1.5 1.5zm0-2c-.275 0-.5.225-.5.5s.225.5.5.5.5-.225.5-.5-.225-.5-.5-.5z"/><path d="m14.5 12c-.827 0-1.5-.673-1.5-1.5s.673-1.5 1.5-1.5 1.5.673 1.5 1.5-.673 1.5-1.5 1.5zm0-2c-.275 0-.5.225-.5.5s.225.5.5.5.5-.225.5-.5-.225-.5-.5-.5z"/><path d="m14.5 5c-.827 0-1.5-.673-1.5-1.5s.673-1.5 1.5-1.5 1.5.673 1.5 1.5-.673 1.5-1.5 1.5zm0-2c-.275 0-.5.224-.5.5s.225.5.5.5.5-.224.5-.5-.225-.5-.5-.5z"/><path d="m10.5 3c-.827 0-1.5-.673-1.5-1.5s.673-1.5 1.5-1.5 1.5.673 1.5 1.5-.673 1.5-1.5 1.5zm0-2c-.275 0-.5.224-.5.5s.225.5.5.5.5-.224.5-.5-.225-.5-.5-.5z"/></svg>

<?xml version="1.0" encoding="utf-8"?>
<!DOCTYPE svg PUBLIC "-//W3C//DTD SVG 1.0//EN" "http://www.w3.org/TR/2001/REC-SVG-20010904/DTD/svg10.dtd">
<svg    fill="#000000" xmlns="http://www.w3.org/2000/svg" xmlns:xlink="http://www.w3.org/1999/xlink" version="1.1" x="0px" y="0px" viewBox="0 0 16 16" style="enable-background:new 0 0 16 16;" xml:space="preserve"><g><path d="M5.5,14C5.224,14,5,13.776,5,13.5S5.224,13,5.5,13C5.776,13,6,12.775,6,12.5S5.776,12,5.5,12h-5C0.224,12,0,11.776,0,11.5   S0.224,11,0.5,11h5C6.327,11,7,11.673,7,12.5S6.327,14,5.5,14z"></path><path d="M6.5,6h-6C0.224,6,0,5.776,0,5.5S0.224,5,0.5,5h6C6.776,5,7,4.776,7,4.5S6.776,4,6.5,4C6.224,4,6,3.776,6,3.5   S6.224,3,6.5,3C7.327,3,8,3.673,8,4.5S7.327,6,6.5,6z"></path><path d="M10.5,9h-10C0.224,9,0,8.776,0,8.5S0.224,8,0.5,8h10C11.327,8,12,7.327,12,6.5S11.327,5,10.5,5C10.224,5,10,4.776,10,4.5   S10.224,4,10.5,4C11.879,4,13,5.122,13,6.5S11.879,9,10.5,9z"></path><path d="M9.5,15C8.673,15,8,14.327,8,13.5S8.673,12,9.5,12s1.5,0.673,1.5,1.5S10.327,15,9.5,15z M9.5,13C9.225,13,9,13.225,9,13.5   S9.225,14,9.5,14s0.5-0.225,0.5-0.5S9.775,13,9.5,13z"></path><path d="M14.5,12c-0.827,0-1.5-0.673-1.5-1.5S13.673,9,14.5,9S16,9.673,16,10.5S15.327,12,14.5,12z M14.5,10   c-0.275,0-0.5,0.225-0.5,0.5s0.225,0.5,0.5,0.5s0.5-0.225,0.5-0.5S14.775,10,14.5,10z"></path><path d="M14.5,5C13.673,5,13,4.327,13,3.5S13.673,2,14.5,2S16,2.673,16,3.5S15.327,5,14.5,5z M14.5,3C14.225,3,14,3.224,14,3.5   S14.225,4,14.5,4S15,3.776,15,3.5S14.775,3,14.5,3z"></path><path d="M10.5,3C9.673,3,9,2.327,9,1.5S9.673,0,10.5,0S12,0.673,12,1.5S11.327,3,10.5,3z M10.5,1C10.225,1,10,1.224,10,1.5   S10.225,2,10.5,2S11,1.776,11,1.5S10.775,1,10.5,1z"></path></g></svg>
